X:186
T:Y Pren ar y Bryn
M:3/4
L:1/8
Q:90
C:Trad.
R:Slow air
N:A cumulative tune. In subsequent verses the final bar is inserted after
N:bar 6, an extra one each time. The tune contains some bars in 2/4 time
K:G
E>E | G4 F2 | E6 | G4 F2 | E2- E3 E | BB/B/ AA | GG
/G/ F/F/F || E/E/E B2 G>A | B4 A>G | F3 E G/G/F | E4 ||
EG FF ||
